material/.icons/material/table-headers-eye-off.svg

<svg xmlns="http://www.w3.org/2000/svg" viewBox="0 0 24 24"><path d="M2.38 1.73L1.11 3l1.15 1.15A2 2 0 001 6v13a2 2 0 002 2h6V11h.11l3.61 3.61A6.21 6.21 0 0011 17a6.45 6.45 0 006 4 6.55 6.55 0 001.84-.27l2 2 1.27-1.27-1.53-1.53M7 19H3v-3h4m0-2H3v-3h4m0-2H3V6h1.11L7 8.89M17 19.5a2.5 2.5 0 01-2.44-3.05l3 3a2.5 2.5 0 01-.56.05m-.76-6.5l1.61 1.61a2.5 2.5 0 011.5 1.5l2.59 2.59A6.44 6.44 0 0023 17a6.45 6.45 0 00-6-4h-.76M13 6v3h-.8l2 2H21V6a2 2 0 00-2-2H7.2l2 2M15 6h4v3h-4z"/></svg>

<?xml version="1.0" encoding="UTF-8"?><!DOCTYPE svg PUBLIC "-//W3C//DTD SVG 1.1//EN" "http://www.w3.org/Graphics/SVG/1.1/DTD/svg11.dtd"><svg xmlns="http://www.w3.org/2000/svg" xmlns:xlink="http://www.w3.org/1999/xlink" version="1.1" id="mdi-table-headers-eye-off" width="24" height="24" viewBox="0 0 24 24"><path d="M2.38 1.73L1.11 3L2.26 4.15A2 2 0 0 0 1 6V19A2 2 0 0 0 3 21H9V11H9.11L12.72 14.61A6.21 6.21 0 0 0 11 17A6.45 6.45 0 0 0 17 21A6.55 6.55 0 0 0 18.84 20.73L20.84 22.73L22.11 21.46L20.58 19.93M7 19H3V16H7M7 14H3V11H7M7 9H3V6H4.11L7 8.89M17 19.5A2.5 2.5 0 0 1 14.56 16.45L17.56 19.45A2.5 2.5 0 0 1 17 19.5M16.24 13L17.85 14.61A2.5 2.5 0 0 1 19.35 16.11L21.94 18.7A6.44 6.44 0 0 0 23 17A6.45 6.45 0 0 0 17 13H16.24M13 6V9H12.2L14.2 11H21V6A2 2 0 0 0 19 4H7.2L9.2 6M15 6H19V9H15Z" /></svg>
